svg/shop_sports-11.svg

<?xml version="1.0" encoding="UTF-8" standalone="no"?>
<svg
   xmlns:dc="http://purl.org/dc/elements/1.1/"
   xmlns:cc="http://creativecommons.org/ns#"
   xmlns:rdf="http://www.w3.org/1999/02/22-rdf-syntax-ns#"
   xmlns:svg="http://www.w3.org/2000/svg"
   xmlns="http://www.w3.org/2000/svg"
   xmlns:sodipodi="http://sodipodi.sourceforge.net/DTD/sodipodi-0.dtd"
   xmlns:inkscape="http://www.inkscape.org/namespaces/inkscape"
   version="1.1"
   x="0px"
   y="0px"
   width="11"
   height="11"
   viewBox="0 0 11 11"
   enable-background="new 0 0 580 580"
   xml:space="preserve"
   id="svg2"
   inkscape:version="0.91 r13725"
   sodipodi:docname="shop_sports-11.svg"><sodipodi:namedview
     pagecolor="#ffffff"
     bordercolor="#666666"
     borderopacity="1"
     objecttolerance="10"
     gridtolerance="10"
     guidetolerance="10"
     inkscape:pageopacity="0"
     inkscape:pageshadow="2"
     inkscape:window-width="924"
     inkscape:window-height="480"
     id="namedview7"
     showgrid="false"
     fit-margin-top="0"
     fit-margin-left="0"
     fit-margin-right="0"
     fit-margin-bottom="0"
     inkscape:zoom="16.857143"
     inkscape:cx="5.5"
     inkscape:cy="5.5"
     inkscape:window-x="0"
     inkscape:window-y="27"
     inkscape:window-maximized="0"
     inkscape:current-layer="svg2" /><metadata
     id="metadata21"><rdf:RDF><cc:Work
         rdf:about=""><dc:format>image/svg+xml</dc:format><dc:type
           rdf:resource="http://purl.org/dc/dcmitype/StillImage" /><dc:title></dc:title></cc:Work></rdf:RDF></metadata><defs
     id="defs19" /><rect
     width="11"
     height="11"
     x="0"
     y="0"
     id="canvas"
     style="visibility:hidden;fill:none;stroke:none" /><path
     id="path4286"
     style="fill:#000000;fill-opacity:1;fill-rule:evenodd;stroke:none;stroke-opacity:1"
     d="M 4.3554557,1.0022497 A 0.99606296,0.98987633 0 0 1 3.3593928,1.9921261 0.99606296,0.98987633 0 0 1 2.3633296,1.0022497 0.99606296,0.98987633 0 0 1 3.3593928,0.0123734 0.99606296,0.98987633 0 0 1 4.3554557,1.0022497 Z M 9.739292,7.7272225 7.6327311,8.2686654 C 7.5466871,8.2907833 7.3561006,8.2712583 7.2839497,8.2534854 7.0990418,8.2176286 7.0458729,8.131739 6.9735134,8.0419256 L 5.9761927,6.3986113 4.7223899,7.7444397 5.2286218,10.260725 c 0.016191,0.05395 0.024286,0.09885 0.024286,0.134706 0,0.161524 -0.052226,0.300601 -0.1567056,0.417234 -0.1044797,0.116632 -0.2290657,0.174962 -0.3738116,0.174962 -0.2731973,0 -0.442046,-0.157035 -0.5065719,-0.471075 L 3.601059,7.4618818 C 3.5286993,7.1388051 3.5608186,6.901023 3.6974431,6.7485071 L 4.7944885,5.5237998 3.6010331,3.9763361 2.8295425,4.8375347 c -0.080429,0.089522 -0.1728963,0.1342974 -0.2774016,0.1342974 -0.1365985,0 -0.2691495,-0.067222 -0.3976789,-0.2016355 L 0.9006586,3.3705565 C 0.8364197,3.2807433 0.8043267,3.182039 0.8042744,3.0744437 0.8043319,2.9400301 0.8464734,2.8279166 0.9308715,2.7381034 1.0152175,2.6483193 1.1137168,2.6033985 1.226265,2.6033985 c 0.1126005,0 0.2010201,0.035855 0.2652586,0.1075946 L 2.5282735,3.868712 3.7820766,2.4691011 C 3.8784607,2.3612142 4.0021551,2.2757449 4.1437196,2.3072566 l 2.7294973,0.6075767 c 0.1180637,0.026281 0.20447,0.1375845 0.2927589,0.2454712 l 0.6062885,1.0447773 c 0.096384,0.089522 0.1446156,0.201635 0.1445889,0.3363404 1.97e-5,0.1256686 -0.040134,0.2333513 -0.1204864,0.3230185 -0.080298,0.089638 -0.1767608,0.134472 -0.2893611,0.134472 -0.1204085,0 -0.2249138,-0.053812 -0.3134376,-0.1614071 L 6.4895836,3.6584313 5.3458744,3.4646254 7.718463,7.1478918 9.651684,6.592865 c 0.152788,0 0.292204,0.030859 0.396709,0.1385999 0.104452,0.1077116 0.210609,0.2032409 0.210609,0.3735385 0,0.1615242 -0.06659,0.3017419 -0.171039,0.4138848 -0.10448,0.1121423 -0.20799,0.1721755 -0.348671,0.2083343 z"
     inkscape:connector-curvature="0" /></svg>

<svg xmlns="http://www.w3.org/2000/svg" width="11" height="11">
    <path visibility="hidden" fill="none" d="M0 0h11v11H0z"/>
    <path d="M4.355 1.002a.996.99 0 0 1-.996.99.996.99 0 0 1-.996-.99.996.99 0 0 1 .996-.99.996.99 0 0 1 .996.99zM9.74 7.727l-2.106.542a1.011 1.011 0 0 1-.35-.016c-.184-.035-.237-.121-.31-.211l-.997-1.643-1.254 1.345.507 2.517a.487.487 0 0 1 .024.134c0 .162-.052.301-.157.418a.486.486 0 0 1-.374.175c-.273 0-.442-.157-.506-.471L3.6 7.462c-.072-.323-.04-.561.096-.713l1.097-1.225-1.193-1.548-.771.862a.364.364 0 0 1-.278.134c-.136 0-.269-.067-.398-.202L.901 3.37a.498.498 0 0 1-.097-.296c0-.134.042-.246.127-.336a.393.393 0 0 1 .295-.135c.113 0 .201.036.266.108l1.036 1.158 1.254-1.4c.096-.108.22-.193.362-.162l2.73.608c.117.026.204.137.292.245l.606 1.045a.44.44 0 0 1 .145.336c0 .126-.04.234-.12.323a.375.375 0 0 1-.29.135.396.396 0 0 1-.313-.161l-.704-1.18-1.144-.193 2.372 3.683 1.934-.555c.152 0 .292.03.396.138.105.108.211.204.211.374a.6.6 0 0 1-.171.414.672.672 0 0 1-.349.208z" fill-rule="evenodd"/>
</svg>
